assets/backbonejs/plain.svg

<svg viewBox="0 0 128 128" xmlns="http://www.w3.org/2000/svg"><path d="m64 31.124-49-27.885v121.522l49-27.885 49 27.885v-121.522zm-23.286 32.875 24.369-13.89 24.368 13.89-24.368 13.892zm-8.714-34.065 17.433 9.937-17.433 9.938zm0 48.257 16.126 9.191-16.126 9.193zm65 18.384-16.127-9.192 16.127-9.192zm-17.434-56.705 17.434-9.936v19.875z" fill="#002a41"/></svg>

<svg xmlns="http://www.w3.org/2000/svg" viewBox="0 0 128 128"><path fill="#002a41" d="M64 31.124 15 3.239v121.522l49-27.885 49 27.885V3.239zM40.714 63.999l24.369-13.89 24.368 13.89-24.368 13.892zM32 29.934l17.433 9.937L32 49.809zm0 48.257 16.126 9.191L32 96.575zm65 18.384-16.127-9.192L97 78.191zM79.566 39.87 97 29.934v19.875z"/></svg>
